X:1
T:Nativity New, 866.866
T:Nativity New, 866.866
T:Frederick Charles Maker, 1881
T:Public Domain Courtesy of the Cyber Hymnal™
C:Frederick Charles Maker, 1881
Z:Public Domain
Z:Courtesy of the Cyber Hymnal™
%%score ( 1 2 ) ( 3 4 )
L:1/8
Q:1/4=100
M:6/8
K:Eb
V:1 treble 
V:2 treble 
V:3 bass 
V:4 bass 
V:1
 E2 [DF] [EG]2 [EG] | (AB)[Ec] [DB]2 [DF] | [EG]2 [EG] F3 | [B,E]2 [=A,E] [B,D]3 | %4
 [CF]2 [CF] (Bc)[Fd] | [Ec]3 [DB]3 | [Ge]2 [Ge] [Ge]2 [EG] | [DF][EG][FA] [EG]2 [DF] | %8
 [EG]2 [EG] [DA]3 | [EB]2 [EB] [Ec]3 | [EB]2 [EB] (cd)[Ge] | [Fd]3 [Ge]3 |] %12
V:2
 E2 x4 | E2 x4 | x3 F3 | x6 | x3 F2 x | x6 | x6 | x6 | x6 | x6 | x3 A2 x | x6 |] %12
V:3
 [E,G,]2 [B,,B,] [E,B,]2 [E,B,] | ([C,A,][B,,G,])[A,,A,] [B,,F,]2 [B,,B,] | %2
 [E,B,]2 [E,B,] [D,B,]3 | [C,G,]2 [C,F,] [B,,F,]3 | [F,=A,]2 [E,A,] ([D,B,][C,A,])[B,,B,] | %5
 [F,=A,]3 [B,,B,]3 | [E,B,]2 [E,B,] [E,B,]2 [G,B,] | B,2 [B,,B,] [E,B,]2 [B,,A,] | %8
 [E,B,]2 [E,B,] [F,B,]3 | [G,B,]2 [G,B,] A,3 | [G,B,]2 [G,B,] [F,B,]2 [E,B,] | [B,,B,]3 [E,B,]3 |] %12
V:4
 x6 | x6 | x6 | x6 | x6 | x6 | x6 | B,2 x4 | x6 | x3 A,3 | x6 | x6 |] %12

